X:22
T:Wondrous Love or Captain Kidd
B:William Walker's Southern Harmony 1885
C:arr. William R Ward
B:American Bicentennial Song Book NY Charles Hanson 1975
Q:1/4=140
M:2/2
L:1/4
K:Am
"Dm"D|"Am"DC"Em"EG|"Am"A2"C"GE|"Dm"D2D"Am"C|"Em"E2"F"A2 |
"Am"cB"Em"AG|"Am"A2"G"G"C"E|"Dm"D2-"G"D2-|"Dm"D2"Em"G2|"F"A"Em7"G"F"A"C"c|
"Dm"d2"G"d2|"Am"cA"G"(A/G/)"C"E|"Dm"D2"G"D2|"Dm"D"Am"C"Em"EG|"Am"A2"C"GE|
"Dm"D2D"Am"C|"Em"E2"F"A2|"Am"cB"Em"AG|"Am"A2"G"G"C"E|"Dm"D4-|"G"D2|]
W:What wondrous love is this, oh my soul, oh my soul,
W:What wondrous love is this, oh my soul,
W:What wondrous love is this that caused the Lord of bliss
W:To bear the dreadful curse for my soul for my soul,
W:To bear the dreadful curse for my soul.
